public/images/user-icon.svg

<svg width="50" height="50" viewBox="0 0 50 50" fill="none" xmlns="http://www.w3.org/2000/svg">
<g clip-path="url(#clip0)">
<path d="M24.6436 24.0851C27.9525 24.0851 30.8177 22.8984 33.1588 20.5569C35.4998 18.2159 36.6866 15.3514 36.6866 12.0422C36.6866 8.7341 35.4998 5.86927 33.1584 3.52744C30.8169 1.18675 27.9521 0 24.6436 0C21.3343 0 18.4699 1.18675 16.1288 3.52782C13.7877 5.86889 12.6006 8.73371 12.6006 12.0422C12.6006 15.3514 13.7877 18.2163 16.1292 20.5573C18.4706 22.898 21.3355 24.0851 24.6436 24.0851V24.0851Z" fill="#333333"/>
<path d="M45.7157 38.4474C45.6482 37.4731 45.5116 36.4103 45.3106 35.2881C45.1077 34.1574 44.8463 33.0885 44.5335 32.1116C44.2104 31.1018 43.771 30.1047 43.2278 29.1491C42.664 28.1573 42.0017 27.2936 41.2586 26.583C40.4816 25.8395 39.5302 25.2417 38.43 24.8057C37.3337 24.372 36.1187 24.1522 34.819 24.1522C34.3086 24.1522 33.815 24.3617 32.8617 24.9823C32.275 25.3649 31.5887 25.8074 30.8228 26.2969C30.1678 26.7142 29.2805 27.1052 28.1845 27.4592C27.1152 27.8052 26.0296 27.9807 24.958 27.9807C23.8865 27.9807 22.8012 27.8052 21.7308 27.4592C20.636 27.1056 19.7487 26.7146 19.0945 26.2972C18.3357 25.8124 17.6491 25.3699 17.0536 24.9819C16.1015 24.3613 15.6075 24.1519 15.097 24.1519C13.797 24.1519 12.5824 24.372 11.4864 24.8061C10.387 25.2413 9.43527 25.8391 8.65746 26.5833C7.91473 27.2944 7.25212 28.1577 6.68907 29.1491C6.14624 30.1047 5.70679 31.1014 5.3833 32.112C5.07088 33.0889 4.80957 34.1574 4.60663 35.2881C4.40559 36.4088 4.26903 37.472 4.20151 38.4485C4.13513 39.4052 4.10156 40.3982 4.10156 41.4011C4.10156 44.0111 4.93126 46.124 6.56738 47.6823C8.18329 49.22 10.3214 50.0001 12.9215 50.0001H36.9968C39.5969 50.0001 41.7343 49.2204 43.3506 47.6823C44.9871 46.1252 45.8168 44.0119 45.8168 41.4007C45.8164 40.3932 45.7825 39.3995 45.7157 38.4474V38.4474Z" fill="#333333"/>
</g>
<defs>
<clipPath id="clip0">
<rect width="50" height="50" fill="white"/>
</clipPath>
</defs>
</svg>

<svg xmlns="http://www.w3.org/2000/svg" width="50" height="50" fill="none"><g clip-path="url(#A)" fill="#333"><path d="M24.644 24.085c3.3 0 6.174-1.187 8.515-3.528s3.528-5.205 3.528-8.515a11.65 11.65 0 0 0-3.528-8.515C30.817 1.187 27.952 0 24.644 0S18.47 1.187 16.13 3.528s-3.53 5.206-3.53 8.514 1.187 6.174 3.53 8.515 5.206 3.528 8.514 3.528h0zm21.072 14.362c-.067-.974-.204-2.037-.405-3.16a24.85 24.85 0 0 0-.777-3.176 15.69 15.69 0 0 0-1.306-2.963c-.564-.992-1.226-1.855-1.97-2.566-.777-.743-1.728-1.34-2.83-1.777s-2.3-.654-3.6-.654c-.5 0-1.004.2-1.957.83l-2.04 1.315c-.655.417-1.542.808-2.638 1.162-1.07.346-2.155.52-3.227.52s-2.157-.175-3.227-.52c-1.095-.354-1.982-.745-2.636-1.162l-2.04-1.315c-.952-.62-1.446-.83-1.957-.83-1.3 0-2.515.22-3.6.654s-2.05 1.033-2.83 1.777c-.743.7-1.405 1.574-1.968 2.566a15.72 15.72 0 0 0-1.306 2.963 25.02 25.02 0 0 0-.777 3.176c-.2 1.12-.338 2.184-.405 3.16L4.1 41.4c0 2.6.83 4.723 2.466 6.28C8.183 49.22 10.32 50 12.922 50h24.075c2.6 0 4.737-.78 6.354-2.318 1.636-1.557 2.466-3.67 2.466-6.282l-.1-2.953z"/></g><defs><clipPath id="A"><path fill="#fff" d="M0 0h50v50H0z"/></clipPath></defs></svg>
